X:55
T:F.D. Steels Q.S.
S:American Veteran Fifer #55
C:To F.D.Steel Fifer 186th N.Y.Vol.Inf. Gouverneur N.Y.
M:6/8
L:1/8
Q:1/8=320
K:D 
%%MIDI program 72
%%MIDI transpose 8
%%MIDI ratio 3 1
d | cAA BGG | cAA Add | cAA BGG | FDD Ddd |
cAA BGG | cAA AGF | GAB ABG | FDD D2 :|
|: A/d/ | f3 g3 | afd cAA | f3 g3 | afd dfg |
afa geg | fdf ecA | dcd dAG | FDD D2 :|



